app/images/javascript-logo-white.svg

<svg height="2500" viewBox="0 0 2500 2500" width="2500" xmlns="http://www.w3.org/2000/svg"><path d="m2370 0c71.79702-0 130 58.2029825 130 130v2240c0 71.79702-58.20298 130-130 130h-2240c-71.7970175 0-130-58.20298-130-130v-2240c-0-71.7970175 58.2029825-130 130-130zm-467.40234 1134.30664c-209.77539 0-344.02344 134.25781-344.02344 310.46875 0 191.30859 112.43164 281.93359 281.93359 354.07227l58.72071 25.19531c107.40234 46.97265 171.17187 75.50781 171.17187 156.05469 0 67.1289-62.07031 115.80078-159.42383 115.80078-115.78125 0-181.23047-60.41016-231.59179-142.64649l-191.28907 110.75196-.00976.00976c68.79883 135.9375 209.76562 239.98047 427.91992 239.98047 223.19336 0 389.32617-115.78125 389.32617-327.24609 0-196.32813-112.43164-283.58399-312.13867-369.17969l-58.73047-25.16602c-100.68359-43.63281-144.31641-72.17773-144.31641-142.65625 0-57.05078 43.63282-100.68359 112.44141-100.68359 67.12891 0 110.74219 28.52539 151.02539 100.68359l182.92969-117.48047c-77.1875-135.92773-184.58985-187.95898-333.94531-187.95898zm-542.10938 13.4375h-234.93164v798.80859c0 117.46094-48.68164 147.65625-125.878906 147.65625-80.537109 0-114.111328-55.37109-151.02539-120.81054l-191.308594 115.78125-.009766-.01953c55.38086 117.4707 164.472657 214.80468 352.412106 214.80468 208.10547 0 350.74219-110.76172 350.74219-354.09179z" fill="#fff"/></svg>

<?xml version="1.0" encoding="UTF-8"?>
<svg width="2500px" height="2500px" viewBox="0 0 2500 2500" version="1.1" xmlns="http://www.w3.org/2000/svg" xmlns:xlink="http://www.w3.org/1999/xlink">
    <!-- Generator: Sketch 60.1 (88133) - https://sketch.com -->
    <title>Combined Shape</title>
    <desc>Created with Sketch.</desc>
    <g id="Page-1" stroke="none" stroke-width="1" fill="none" fill-rule="evenodd">
        <g id="javascript" fill="#FFFFFF" fill-rule="nonzero">
            <path d="M2370,0 C2441.79702,-1.31888981e-14 2500,58.2029825 2500,130 L2500,2370 C2500,2441.79702 2441.79702,2500 2370,2500 L130,2500 C58.2029825,2500 8.79259876e-15,2441.79702 0,2370 L0,130 C-8.79259876e-15,58.2029825 58.2029825,1.31888981e-14 130,0 L2370,0 Z M1902.59766,1134.30664 C1692.82227,1134.30664 1558.57422,1268.56445 1558.57422,1444.77539 C1558.57422,1636.08398 1671.00586,1726.70898 1840.50781,1798.84766 L1840.50781,1798.84766 L1899.22852,1824.04297 C2006.63086,1871.01562 2070.40039,1899.55078 2070.40039,1980.09766 C2070.40039,2047.22656 2008.33008,2095.89844 1910.97656,2095.89844 C1795.19531,2095.89844 1729.74609,2035.48828 1679.38477,1953.25195 L1679.38477,1953.25195 L1488.0957,2064.00391 L1488.08594,2064.01367 C1556.88477,2199.95117 1697.85156,2303.99414 1916.00586,2303.99414 C2139.19922,2303.99414 2305.33203,2188.21289 2305.33203,1976.74805 C2305.33203,1780.41992 2192.90039,1693.16406 1993.19336,1607.56836 L1993.19336,1607.56836 L1934.46289,1582.40234 C1833.7793,1538.76953 1790.14648,1510.22461 1790.14648,1439.74609 C1790.14648,1382.69531 1833.7793,1339.0625 1902.58789,1339.0625 C1969.7168,1339.0625 2013.33008,1367.58789 2053.61328,1439.74609 L2053.61328,1439.74609 L2236.54297,1322.26562 C2159.35547,1186.33789 2051.95312,1134.30664 1902.59766,1134.30664 Z M1360.48828,1147.74414 L1125.55664,1147.74414 L1125.55664,1946.55273 C1125.55664,2064.01367 1076.875,2094.20898 999.677734,2094.20898 C919.140625,2094.20898 885.566406,2038.83789 848.652344,1973.39844 L848.652344,1973.39844 L657.34375,2089.17969 L657.333984,2089.16016 C712.714844,2206.63086 821.806641,2303.96484 1009.74609,2303.96484 C1217.85156,2303.96484 1360.48828,2193.20312 1360.48828,1949.87305 L1360.48828,1949.87305 L1360.48828,1147.74414 Z" id="Combined-Shape"></path>
        </g>
    </g>
</svg>
